assets/icons/producto-joyas.svg

<svg width="60" height="70" viewBox="0 0 60 70" fill="none" xmlns="http://www.w3.org/2000/svg">
<path d="M39.0193 58.9399C39.3064 57.8374 39.8601 56.8248 40.636 55.9884C55.5179 47.0614 59.1888 24.9701 59.2914 21.006C59.3529 20.1524 58.7172 19.4059 57.8763 19.3402C57.849 19.3402 57.8216 19.3402 57.7909 19.3367C53.8465 19.2745 50.3602 16.3438 48.0804 13.8243C48.3777 12.981 48.3607 12.0686 48.0257 11.2322C47.6634 10.3198 46.9729 9.60443 46.0809 9.21735C45.6228 9.02035 45.1272 8.9305 44.6145 8.92013C44.5462 8.92358 44.4744 8.9305 44.406 8.94086C43.5037 7.52387 42.6731 6.03776 41.9348 4.52746C41.2923 1.39971 35.3894 0.00345607 29.7941 0H29.7839C24.1886 0 18.2824 1.39971 17.6364 4.52055C16.9528 5.92717 16.1837 7.31305 15.3532 8.64019C15.3361 8.64019 15.319 8.64019 15.3019 8.64019C13.3058 8.64019 11.6754 10.2784 11.6651 12.3002C11.6651 12.6873 11.7198 13.0674 11.836 13.4338C9.48788 16.1295 5.87849 19.2745 1.7769 19.3333C1.36675 19.3437 0.983931 19.513 0.700238 19.8102C0.416545 20.1109 0.266153 20.5049 0.272989 20.9162C0.272989 20.9438 0.272989 20.9715 0.272989 20.9818C0.324259 23.522 1.43852 30.1197 4.21051 37.0146C6.66463 43.118 11.214 51.3607 18.9455 55.9988C19.7111 56.8317 20.258 57.8374 20.5451 58.933C13.4357 59.7521 9.97666 61.3246 9.97666 63.7369C9.97666 68.7897 26.4684 69.0455 29.7771 69.0455C33.0857 69.0455 49.5775 68.7897 49.5775 63.7369C49.5775 61.3246 46.1185 59.7521 39.009 58.933L39.0193 58.9399ZM14.444 15.9187C14.3654 18.1375 15.9923 20.0867 18.2106 20.3459C18.3576 20.3632 18.5045 20.3736 18.6515 20.3736C18.7404 22.9518 20.7775 25.0773 23.3683 25.2017C23.4743 25.2052 23.5837 25.2086 23.7033 25.2052C23.8537 25.1982 24.0041 25.1844 24.1545 25.1637C24.2604 28.1601 26.6393 30.6208 29.6506 30.7487C32.7199 30.8766 35.3586 28.5057 35.6047 25.4229C35.8269 25.454 36.0491 25.4747 36.2747 25.4816C38.992 25.5231 41.2205 23.37 41.3162 20.65C43.6097 20.6224 45.4861 18.7492 45.5237 16.4164C45.5237 16.3438 45.5237 16.2712 45.5237 16.1952C45.681 16.1606 45.8382 16.1157 45.9886 16.0604C49.2596 19.6409 52.6502 21.7318 56.0785 22.2779C55.3846 28.6958 51.1873 45.7273 39.3713 53.1337C39.1799 53.2235 38.9988 53.3341 38.8347 53.4655C36.0901 55.0898 32.966 56.1128 29.7976 56.4273C26.6291 56.1163 23.5016 55.0898 20.7536 53.4655C20.5895 53.3376 20.4118 53.2305 20.2238 53.1371C8.41805 45.7411 4.21051 28.6992 3.51324 22.2813C7.05086 21.7214 10.5406 19.5234 13.8971 15.7424C14.0782 15.815 14.2662 15.8738 14.4542 15.9187H14.444ZM29.7873 10.0157C33.2668 10.0157 37.7376 9.43508 40.1917 7.83146C40.5506 8.49158 41.0633 9.38324 41.7058 10.4062C41.4119 10.8279 41.2102 11.3048 41.1077 11.8094C39.0842 11.8094 37.3445 13.2852 36.9719 15.2724C36.7463 15.2378 36.5173 15.2171 36.2849 15.2102C36.2507 15.2102 36.22 15.2102 36.1858 15.2102C33.8171 15.2102 31.7834 16.9451 31.3528 19.2676C30.8777 19.1397 30.3855 19.0637 29.8693 19.0464C29.4592 19.0637 29.049 19.1155 28.6457 19.2089C28.3039 16.7309 26.1813 14.8853 23.6691 14.9337C23.4435 14.9406 23.2145 14.9648 22.9889 14.9959C22.6164 13.0121 20.8766 11.5329 18.8532 11.5329C18.737 10.9661 18.4909 10.4304 18.1388 9.97769C18.5763 9.26574 18.9933 8.54687 19.383 7.83146C21.8371 9.43508 26.3078 10.0157 29.7873 10.0157ZM38.2468 20.7572C38.1375 21.2929 37.8264 21.756 37.3718 22.0567C37.0437 22.2744 36.6643 22.3919 36.2815 22.3919C35.7414 22.385 35.2356 22.1638 34.8596 21.7733C34.4836 21.3827 34.2785 20.8643 34.2854 20.3183C34.2991 19.202 35.1775 18.3137 36.2815 18.2999C36.2917 18.2999 36.302 18.2999 36.3122 18.2999C36.8386 18.2999 37.3479 18.5176 37.7136 18.8978C37.7922 19.0119 37.8743 19.1259 37.9631 19.2331C38.2502 19.6858 38.3494 20.2284 38.2434 20.7572H38.2468ZM32.5832 24.9321C32.5661 26.4217 31.3528 27.6486 29.8899 27.6659C29.1584 27.659 28.4748 27.3617 27.9655 26.833C27.4562 26.3042 27.1794 25.6061 27.1862 24.8699C27.2033 23.3803 28.4167 22.1534 29.8796 22.1362C30.611 22.1431 31.2946 22.4403 31.8039 22.9691C32.3132 23.4979 32.5901 24.196 32.5832 24.9321ZM25.7131 20.066C25.7131 20.612 25.5046 21.127 25.1252 21.5141C24.7424 21.9011 24.2365 22.1154 23.6965 22.1154C23.1462 22.1327 22.6471 21.9046 22.2643 21.521C21.8815 21.1339 21.6696 20.6224 21.6696 20.0763C21.6696 19.6789 21.7824 19.2918 21.9943 18.9566C22.0832 18.8494 22.1686 18.7354 22.2472 18.6213C22.6164 18.2412 23.1222 18.0234 23.6554 18.0234C23.6691 18.0234 23.6794 18.0234 23.693 18.0234C24.8073 18.0234 25.7131 18.9393 25.7165 20.066H25.7131ZM42.0066 17.2631C41.7879 17.4394 41.5178 17.543 41.2376 17.5569C40.7932 17.4359 40.3865 17.2009 40.0549 16.876C39.7131 16.2539 39.9216 15.459 40.53 15.0892C40.7215 14.9752 40.9368 14.9095 41.1555 14.9026C41.5418 14.9994 41.9109 15.1756 42.2288 15.4141C42.656 15.9878 42.5603 16.8069 42.0032 17.2596L42.0066 17.2631ZM18.8019 14.6296C19.1369 14.6434 19.4513 14.7816 19.6906 15.0236C19.9367 15.2759 20.0734 15.6111 20.07 15.9671C20.07 16.1883 20.0119 16.4094 19.9059 16.603C19.5744 16.9279 19.1676 17.1629 18.7233 17.2838C18.3883 17.27 18.0739 17.1283 17.838 16.8829C17.5919 16.6272 17.4586 16.2919 17.462 15.9325C17.4655 15.6457 17.5612 15.3692 17.7287 15.1411C18.0465 14.9026 18.4157 14.7263 18.8019 14.6296ZM20.8971 62.0123C20.8971 62.3614 20.8424 62.4927 20.7672 63.0215C20.7091 63.4293 20.8151 63.8372 21.0612 64.1655C21.3073 64.4938 21.6662 64.7081 22.0695 64.7668C22.9001 64.8843 23.6725 64.3003 23.7956 63.4604C23.7956 63.4604 24.3493 60.3223 23.4914 58.145C25.5114 58.8673 27.6066 59.3339 29.7121 59.5274L29.7531 59.5343H29.8352C31.9714 59.3304 34.07 58.8604 36.0935 58.1381C35.5774 60.0528 35.468 61.4939 35.7859 63.4466C35.9021 64.2899 36.6746 64.8843 37.5085 64.7668C38.3357 64.6528 38.9168 63.8855 38.8176 63.0492C38.8176 63.0492 38.6946 62.5446 38.6843 62.0123C42.8953 62.5031 45.1751 63.2427 46.139 63.7507C44.43 64.6424 38.7732 65.9592 29.7941 65.9592C20.8151 65.9592 15.1583 64.6459 13.4493 63.7507C14.4132 63.2427 16.693 62.5031 20.9074 62.0123H20.8971ZM44.6726 13.2264C44.4881 13.178 44.3138 13.0951 44.1634 12.9776C43.9822 12.6942 44.0472 12.3175 44.3172 12.1135C44.324 12.1101 44.3308 12.1032 44.3343 12.0997C44.4368 12.0582 44.5462 12.0306 44.6556 12.0133C44.9734 12.0341 45.2264 12.3071 45.2195 12.6354C45.2127 12.9499 44.9768 13.2022 44.6692 13.2299L44.6726 13.2264ZM20.6852 5.02859C21.1671 4.50672 23.9802 3.11392 29.7873 3.11392C35.5945 3.11392 38.3972 4.49981 38.8894 5.01476C38.3835 5.54354 35.5671 6.92252 29.7873 6.92252C24.0075 6.92252 21.1706 5.53663 20.6852 5.02859ZM15.8009 12.6907C15.8009 12.6907 15.7975 12.6976 15.7941 12.7011C15.6437 12.8186 15.4694 12.9015 15.2848 12.9499C15.1378 12.9361 15.0045 12.8739 14.902 12.7667C14.7892 12.6492 14.7311 12.4972 14.7345 12.3313C14.7413 12.0133 14.984 11.7541 15.295 11.7334C15.4044 11.7541 15.5172 11.7818 15.6232 11.8198C15.9 12.0133 15.9821 12.3935 15.8009 12.6873V12.6907Z" fill="#4CAD36"/>
</svg>

<svg version="1.2" xmlns="http://www.w3.org/2000/svg" viewBox="0 0 60 70" width="60" height="70">
	<style>
		.s0 { fill: #0865d8 } 
	</style>
	<path class="s0" d="m39.02 58.94c0.29-1.1 0.84-2.12 1.62-2.95 14.88-8.93 18.55-31.02 18.65-34.98 0.06-0.86-0.57-1.6-1.41-1.67q-0.04 0-0.09 0c-3.94-0.07-7.43-3-9.71-5.52 0.3-0.84 0.28-1.75-0.05-2.59-0.37-0.91-1.06-1.63-1.95-2.01q-0.69-0.29-1.47-0.3-0.1 0.01-0.2 0.02-1.36-2.14-2.48-4.41c-0.64-3.13-6.54-4.53-12.14-4.53h-0.01c-5.59 0-11.5 1.4-12.14 4.52q-1.04 2.12-2.29 4.12-0.02 0-0.05 0c-1.99 0-3.62 1.64-3.63 3.66q-0.01 0.58 0.17 1.13c-2.35 2.7-5.96 5.84-10.06 5.9-0.41 0.01-0.8 0.18-1.08 0.48-0.28 0.3-0.43 0.69-0.43 1.11q0 0.04 0 0.06c0.05 2.54 1.17 9.14 3.94 16.03 2.45 6.11 7 14.35 14.74 18.99 0.76 0.83 1.31 1.84 1.6 2.93-7.11 0.82-10.57 2.39-10.57 4.81 0 5.05 16.49 5.31 19.8 5.31 3.31 0 19.8-0.26 19.8-5.31 0-2.42-3.46-3.99-10.57-4.81zm-24.58-43.02c-0.07 2.22 1.55 4.17 3.77 4.43q0.22 0.03 0.44 0.03c0.09 2.57 2.13 4.7 4.72 4.82q0.16 0.01 0.33 0.01 0.23-0.01 0.45-0.04c0.11 2.99 2.49 5.45 5.5 5.58 3.07 0.13 5.71-2.24 5.95-5.32q0.34 0.04 0.67 0.05c2.72 0.05 4.95-2.11 5.05-4.83 2.29-0.02 4.17-1.9 4.2-4.23q0-0.11 0-0.22 0.24-0.05 0.47-0.14c3.27 3.58 6.66 5.67 10.09 6.22-0.7 6.42-4.89 23.45-16.71 30.86q-0.29 0.13-0.54 0.33c-2.74 1.62-5.86 2.65-9.03 2.96-3.17-0.31-6.3-1.34-9.05-2.96q-0.24-0.19-0.53-0.33c-11.8-7.4-16.01-24.44-16.71-30.86 3.54-0.56 7.03-2.75 10.39-6.53q0.27 0.1 0.55 0.17zm15.35-5.9c3.48 0 7.95-0.58 10.4-2.19 0.36 0.66 0.87 1.56 1.52 2.58q-0.45 0.64-0.6 1.4c-2.03 0-3.77 1.48-4.14 3.47q-0.34-0.06-0.69-0.07-0.04 0-0.09 0c-2.37 0-4.41 1.74-4.84 4.06q-0.71-0.19-1.48-0.22-0.62 0.02-1.22 0.16c-0.35-2.48-2.47-4.32-4.98-4.27q-0.34 0.01-0.68 0.06c-0.37-1.98-2.11-3.46-4.14-3.46q-0.18-0.87-0.71-1.56 0.66-1.07 1.24-2.15c2.46 1.61 6.93 2.19 10.41 2.19zm8.46 10.74c-0.11 0.54-0.42 1-0.88 1.3q-0.5 0.33-1.09 0.34c-0.54-0.01-1.04-0.23-1.42-0.62-0.38-0.39-0.58-0.91-0.57-1.46 0.01-1.11 0.89-2 1.99-2.02q0.02 0 0.03 0c0.53 0 1.04 0.22 1.4 0.6q0.12 0.17 0.25 0.34c0.29 0.45 0.39 0.99 0.28 1.52zm-5.66 4.18c-0.02 1.48-1.23 2.71-2.69 2.73-0.74-0.01-1.42-0.31-1.93-0.83-0.51-0.53-0.78-1.23-0.78-1.97 0.02-1.49 1.23-2.71 2.7-2.73 0.73 0.01 1.41 0.3 1.92 0.83 0.51 0.53 0.79 1.23 0.78 1.97zm-6.87-4.87c0 0.55-0.21 1.06-0.59 1.45-0.38 0.38-0.89 0.6-1.43 0.6-0.55 0.02-1.05-0.21-1.43-0.6-0.38-0.38-0.59-0.89-0.59-1.44q0-0.61 0.32-1.12 0.13-0.16 0.25-0.34c0.37-0.38 0.88-0.59 1.41-0.59q0.02 0 0.04 0c1.11 0 2.02 0.91 2.02 2.04zm16.3-2.8q-0.34 0.26-0.77 0.29-0.68-0.19-1.19-0.68c-0.34-0.62-0.13-1.42 0.48-1.79q0.29-0.17 0.63-0.18 0.58 0.15 1.07 0.51c0.43 0.57 0.33 1.39-0.23 1.84zm-23.2-2.63q0.51 0.03 0.89 0.39c0.24 0.26 0.38 0.59 0.38 0.95q-0.01 0.34-0.17 0.63-0.5 0.5-1.18 0.68-0.52-0.02-0.89-0.4-0.37-0.39-0.37-0.95 0.01-0.44 0.27-0.79 0.48-0.36 1.07-0.51zm2.09 47.38c0 0.35-0.05 0.48-0.13 1.01-0.05 0.41 0.05 0.82 0.3 1.15 0.24 0.32 0.6 0.54 1.01 0.6 0.83 0.11 1.6-0.47 1.72-1.31 0 0 0.56-3.14-0.3-5.32 2.02 0.73 4.11 1.19 6.22 1.39h0.04 0.08q3.22-0.31 6.26-1.39c-0.52 1.91-0.63 3.35-0.31 5.31 0.12 0.84 0.89 1.43 1.72 1.32 0.83-0.12 1.41-0.88 1.31-1.72 0 0-0.12-0.51-0.13-1.04 4.21 0.49 6.49 1.23 7.46 1.74-1.71 0.89-7.37 2.21-16.35 2.21-8.98 0-14.64-1.31-16.34-2.21 0.96-0.51 3.24-1.25 7.45-1.74zm23.78-48.78q-0.28-0.08-0.51-0.25c-0.18-0.29-0.12-0.66 0.15-0.87q0.02 0 0.02-0.01 0.16-0.06 0.32-0.09c0.32 0.02 0.57 0.3 0.57 0.62-0.01 0.32-0.25 0.57-0.55 0.6zm-23.99-8.2c0.48-0.52 3.29-1.91 9.1-1.91 5.81 0 8.61 1.38 9.1 1.9-0.5 0.53-3.32 1.91-9.1 1.91-5.78 0-8.62-1.39-9.1-1.9zm-4.89 7.66q0 0.01 0 0.01-0.23 0.18-0.51 0.25-0.23-0.02-0.38-0.18-0.18-0.18-0.17-0.44c0-0.31 0.25-0.57 0.56-0.59q0.17 0.03 0.33 0.08c0.27 0.2 0.36 0.58 0.17 0.87z"/>
</svg>
